X: 1
T: Reel D'Espagne
M: 2/4
L: 1/8
R: polka
K: Dmaj
d/c/d/e/ |: fd Ad | f e/f/ ge | Bc d/c/d/e/|
fd Ad | f e/f/ ge |1 Bc ed | d d/e/ :|2 Bc ed | dz ||
|: [D/F/][D/F/][D/F/][D/F/] [DF][FA] | [E/G/][E/G/][E/G/][E/G/] [EG][GB] |
 [F/A/][F/A/][F/A/][F/A/] [FA]d | ce Bc |1 d/c/d/e/ fd  :|2 d z :|
